X:91
T:Jenny Sutton. WM.090
M:C
L:1/8
Q:1/2=100
S:Wm.Mittell’s MS, New Romney,Kent,1799
R:.Reel
O:England
A:Kent
Z:vmp.Chris Partington
W:Foot it and cast off,2nd couple cast up again,lead down 2 couple up
W:again,and cast off,set corner and turn the lady (?) at top,the
W:gentleman at bottom
K:A
A/A/A Ac ecec|A/A/A Ac dBGB|A/A/A Ac ecec|dfdBc2A2:|!
|:(aA)(aA) (gA)(gA)|fgaf ecBA|(aA)(aA) (gA)(gA)|fgaff2e2|!
aFFa gEEg|fDDf ecBA|A/A/A Ac ecec|caBga2A2:|

